X:10
T:Yankee Doodle Stick Dance (Bampton) (Binghamton)
M:4/4
S:Binghamton MM
O:England; Oxfordshire; Bampton.
R:Jig
P:A(AB)3CD
K:D
P:A
ddef df e2 | ddef d2 c2 | ddef gfed | cABc d2 d2 |]
P:B
B>cBA Bc d2 | A>BAG F2 A2 | B>cBA BcdB | Adce d2 d2 :|
P:C
"alternate played on rounds and last chorus" \
ffga agfe | ddef f2 ee | ffga agfe | ddef e2 dd |]
P:D
e>efd ef/g/ fd | ef/g/ fe de A2 | ffga agfe | ddef e2 dd :|

